X: 485
T: Rorate coeli
C: Anonim
L: 1/4
M: C|
N: Derived from pl-kk--kk-i-360--001_anonim--rorate-coeli.krn
V: 1 clef=alto
V: 2 clef=alto
V: 3 clef=tenor
V: 4 clef=tenor
V: 5 clef=bass
V: 6 clef=bass
K: C
[V:1] G4F8 [|] 
[V:2] E4D6 [|] 
[V:3] C,4D,4 [|] 
[V:4] C2>B,2A,G,A,2 [|] 
[V:5] z16 [|] 
[V:6] z16 [|] 
[V:1] E2F2 [|] 
[V:2] D2C3D [|] 
[V:3] D,4A,4 [|] 
[V:4] A,4z2A,2 [|] 
[V:5]  [|] 
[V:6]  [|] 
[V:1] G4z2F2 [|] 
[V:2] EFE2D8 [|] 
[V:3] C4!breath!A,4 [|] 
[V:4] G,4F,2D,E, [|] 
[V:5] C,4D,4 [|] 
[V:6] C,4D,4 [|] 
[V:1] F2D2E4 [|] 
[V:2] z4 [|] 
[V:3] A,4B,4 [|] 
[V:4] F,G,A,4^G,2 [|] 
[V:5] D,2F,2E,4 [|] 
[V:6] D,2F,2E,4 [|] 
[V:1] E4z2F2 [|] 
[V:2] z2E2C2C2 [|] 
[V:3] C4A,4 [|] 
[V:4] A,4z4 [|] 
[V:5] !breath!A,,2A,2>G,2F,E, [|] 
[V:6] !breath!A,,2A,2>G,2F,E, [|] 
[V:1] F2D2E4 [|] 
[V:2] D2A,2B,4 [|] 
[V:3] A,4!breath!G,4 [|] 
[V:4] z2F,2=G,2E,2 [|] 
[V:5] D,2F,2E,4 [|] 
[V:6] !breath!D,2F,2E,4 [|] 
[V:1] E2A4A2 [|] 
[V:2] C2>D2E8 [|] 
[V:3] A,4C4 [|] 
[V:4] C2>B,2A,G,A,2 [|] 
[V:5] z2A,,2A,,3B,, [|] 
[V:6] z2A,,2A,,3B,, [|] 
[V:1] G4z2G4 [|] 
[V:2] D2E2 [|] 
[V:3] C4B,4 [|] 
[V:4] E,F,G,A,B,2G,2 [|] 
[V:5] C,D,E,F,G,2E,2 [|] 
[V:6] C,D,E,F,G,2E,2 [|] 
[V:1] ^F2G8 [|] 
[V:2] C4z2D2 [|] 
[V:3] C4D4 [|] 
[V:4] A,B,2<C2B,/A,/B,2 [|] 
[V:5] A,4G,4 [|] 
[V:6] A,2>A,2G,4 [|] 
[V:1] z2G2 [|] 
[V:2] E2C4B,A, [|] 
[V:3] C4D4 [|] 
[V:4] C2G,4G,2 [|] 
[V:5] z2C,2G,,8 [|] 
[V:6] z2C,2G,6 [|] 
[V:1] G2G2E6 [|] 
[V:2] B,4C4 [|] 
[V:3] D4!breath!C4 [|] 
[V:4] G,8 [|] 
[V:5] C,8 [|] 
[V:6] G,,2C,8 [|] 
[V:1] =F2G8 [|] 
[V:2] z4D4 [|] 
[V:3] G,4B,4 [|] 
[V:4] z2C2G,6 [|] 
[V:5] z4 [|] 
[V:6] z4 [|] 
[V:1] z2A2 [|] 
[V:2] E2E2F6 [|] 
[V:3] C4A,4 [|] 
[V:4] G,2D4 [|] 
[V:5] C,4D,4 [|] 
[V:6] C,4D,4 [|] 
[V:1] A2A4^G2 [|] 
[V:2] D2E8 [|] 
[V:3] !breath!A,4B,4 [|] 
[V:4] C2D2B,4 [|] 
[V:5] F,4E,4 [|] 
[V:6] F,4E,4 [|] 
[V:1] !breath!A2E2F4 [|] 
[V:2] D4 [|] 
[V:3] C4A,4 [|] 
[V:4] z2G,2F,3E, [|] 
[V:5] z2C,2D,3C, [|] 
[V:6] z2C,2D,3C, [|] 
[V:1] F2F4E2 [|] 
[V:2] z2C4C2 [|] 
[V:3] !breath!A,4G,4 [|] 
[V:4] F,G,A,F,G,2G,2 [|] 
[V:5] D,E,F,2C,2C,2 [|] 
[V:6] D,E,F,2C,2C,2 [|] 
[V:1] F4C8 [|] 
[V:2] C2D2E2F2 [|] 
[V:3] F,4A,4 [|] 
[V:4] A,4z4 [|] 
[V:5] F,,4z2F,4 [|] 
[V:6] F,4z2F,4 [|] 
[V:1] z2F4 [|] 
[V:2] C2C2D2B,2 [|] 
[V:3] G,4F,4 [|] 
[V:4] z2G,2A,2F,2 [|] 
[V:5] E,2D,4 [|] 
[V:6] E,2D,4 [|] 
[V:1] EDE4 [|] 
[V:2] C4z4 [|] 
[V:3] G,4G,4 [|] 
[V:4] C2G,2C3B, [|] 
[V:5] C,8 [|] 
[V:6] C,8 [|] 
[V:1] F4z2F2 [|] 
[V:2] C4D4 [|] 
[V:3] !breath!F,4F,4 [|] 
[V:4] A,G,A,2F,2_B,2 [|] 
[V:5] z2F,2D,2_B,,2 [|] 
[V:6] z2F,2D,2_B,,2 [|] 
[V:1] F2F4ED [|] 
[V:2] D2D2G,4 [|] 
[V:3] F,4G,4 [|] 
[V:4] A,G,A,=B,C8 [|] 
[V:5] D,4C,8 [|] 
[V:6] D,4C,8 [|] 
[V:1] E2>D2EF=G4 [|] 
[V:2] z4C3D [|] 
[V:3] G,4A,4 [|] 
[V:4] z4 [|] 
[V:5] z4 [|] 
[V:6] z4 [|] 
[V:1] G2E4 [|] 
[V:2] EDEFG2FE [|] 
[V:3] C4!breath!G,4 [|] 
[V:4] z2G,2C3B, [|] 
[V:5] C,4C,4 [|] 
[V:6] C,4C,4 [|] 
[V:1] F4D4 [|] 
[V:2] D2C2z2C2 [|] 
[V:3] F,4G,4 [|] 
[V:4] A,4G,4 [|] 
[V:5] D,2F,4E,2 [|] 
[V:6] D,2F,4E,2 [|] 
[V:1] z2F2F2F2 [|] 
[V:2] A,2D4D2 [|] 
[V:3] F,4D,4 [|] 
[V:4] z2A,2A,2A,2 [|] 
[V:5] !breath!F,2D,E,F,G,A,3 [|] 
[V:6] !breath!F,2D,E,F,G,A,2- [|] 
[V:1] F12 [|] 
[V:2] D4D4 [|] 
[V:3] !breath!D,4F,4 [|] 
[V:4] A,4A,4 [|] 
[V:5] G,F,E,D,4 [|] 
[V:6] A,G,F,E,D,4 [|] 
[V:1] z2C2 [|] 
[V:2] C8 [|] 
[V:3] F,4G,4 [|] 
[V:4] z2A,2C3B, [|] 
[V:5] z2F,4E,2 [|] 
[V:6] z2F,4E,2 [|] 
[V:1] D2F4E2 [|] 
[V:2] z4z2C4 [|] 
[V:3] F,4G,4 [|] 
[V:4] A,G,A,B,C4 [|] 
[V:5] F,2D,2C,4 [|] 
[V:6] F,2D,2C,4 [|] 
[V:1] F2C2D3C [|] 
[V:2] C2D2F2 [|] 
[V:3] F,4!breath!D,4 [|] 
[V:4] z2A,2F,4 [|] 
[V:5] F,,4_B,,3A,, [|] 
[V:6] F,4_B,3A, [|] 
[V:1] _B,A,_B,2A,2F4 [|] 
[V:2] D2_B,2C4 [|] 
[V:3] D,4F,4 [|] 
[V:4] G,4A,4 [|] 
[V:5] G,,F,,G,,2F,,4 [|] 
[V:6] G,F,G,2F,4 [|] 
[V:1] E2F2C2 [|] 
[V:2] C4z2F4 [|] 
[V:3] C,4F,4 [|] 
[V:4] G,4A,3G, [|] 
[V:5] z4F,,4 [|] 
[V:6] z4F,4 [|] 
[V:1] D6D2 [|] 
[V:2] F2F2D4 [|] 
[V:3] D,4D,4 [|] 
[V:4] F,2F,2_B,2G,2 [|] 
[V:5] _B,,4G,,2_B,,2 [|] 
[V:6] _B,4G,2B,2 [|] 
[V:1] F2E2D4 [|] 
[V:2] ^C2D2A,2 [|] 
[V:3] E,4F,4 [|] 
[V:4] A,4A,2F,2 [|] 
[V:5] A,,4D,4 [|] 
[V:6] A,2A,,2D,4 [|] 
[V:1] D2D2!fermata!D4- [|] 
[V:2] _B,2>A,2G,2F,2 [|] 
[V:3] D,4!fermata!D,4- [|] 
[V:4] G,A,_B,C2<D2C [|] 
[V:5] G,,2>A,,2_B,,2A,,2 [|] 
[V:6] G,2>A,2_B,2A,2 [|] 
[V:1] D8- [|] 
[V:2] G,2A,2_B,4 [|] 
[V:3] D,8- [|] 
[V:4] _B,2A,2G,4 [|] 
[V:5] G,,2^F,,2G,,4 [|] 
[V:6] G,2^F,2G,4 [|] 
[V:1] D8- [|] 
[V:2] !fermata!A,8- [|] 
[V:3] D,8- [|] 
[V:4] !fermata!^F,8- [|] 
[V:5] !fermata!D,8- [|] 
[V:6] !fermata!D,8- [|] 
[V:1] D8 [|] 
[V:2] A,8 [|] 
[V:3] D,8 [|] 
[V:4] F,8 [|] 
[V:5] D,8 [|] 
[V:6] D,8 [|] 
[V:1] [M:C|]z2F4E2 [|] 
[V:2] [M:C|]=C6C2 [|] 
[V:3] [M:C|]F,4G,4 [|] 
[V:4] [M:C|]A,4G,4 [|] 
[V:5] [M:C|]F,4C,4 [|] 
[V:6] [M:C|]=F,4C,4 [|] 
[V:1] F2>E2DCDE [|] 
[V:2] C2C2A,4 [|] 
[V:3] A,4A,4 [|] 
[V:4] =F,6F,2 [|] 
[V:5] =F,,2F,2>E,2D,C, [|] 
[V:6] F,,2F,2>E,2D,C, [|] 
[V:1] F2F2E4 [|] 
[V:2] D4C6 [|] 
[V:3] A,4A,4 [|] 
[V:4] F,4z8 [|] 
[V:5] D,4!breath!A,,2A,3 [|] 
[V:6] D,4A,,2A,3 [|] 
[V:1] A2>G2F2E2 [|] 
[V:2] C2D2E2 [|] 
[V:3] A,4A,2A,2 [|] 
[V:4] z2A,2 [|] 
[V:5] G,F,E,D,2^C,2 [|] 
[V:6] G,F,E,D,2^C,2 [|] 
[V:1] D4C4 [|] 
[V:2] F4E4 [|] 
[V:3] A,4C4 [|] 
[V:4] D2A,4G,2 [|] 
[V:5] D,4A,,2=C,2 [|] 
[V:6] !breath!D,4A,,2=C,2 [|] 
[V:1] z2C2D2F4 [|] 
[V:2] D2C2A,G,A,=B, [|] 
[V:3] A,4A,4 [|] 
[V:4] F,2>G,2A,4 [|] 
[V:5] D,2F,4F,2 [|] 
[V:6] !breath!D,2F,4F,2 [|] 
[V:1] EDE4 [|] 
[V:2] C4C4 [|] 
[V:3] G,4G,4 [|] 
[V:4] z8 [|] 
[V:5] C,4C,4 [|] 
[V:6] C,8 [|] 
[V:1] F4C4 [|] 
[V:2] C8 [|] 
[V:3] A,4G,4 [|] 
[V:4] F,4G,4 [|] 
[V:5] !breath!F,,2F,4E,2 [|] 
[V:6] !breath!F,,2F,4E,2 [|] 
[V:1] z2F4E2 [|] 
[V:2] z2D2G4 [|] 
[V:3] F,4G,4 [|] 
[V:4] A,2=B,2C4 [|] 
[V:5] F,2D,2C,4 [|] 
[V:6] F,2D,2C,4 [|] 
[V:1] F2D2C2F4 [|] 
[V:2] F6F2 [|] 
[V:3] A,4A,4 [|] 
[V:4] z2A,2>G,2F,E, [|] 
[V:5] !breath!F,,2F,2>E,2D,C, [|] 
[V:6] !breath!F,,2F,2>E,2D,C, [|] 
[V:1] F2E2E2 [|] 
[V:2] D2D4^C2 [|] 
[V:3] !breath!A,2A,2A,4 [|] 
[V:4] F,2D,2E,4 [|] 
[V:5] D,4A,,4 [|] 
[V:6] D,4A,,4 [|] 
[V:1] D2A4G2 [|] 
[V:2] D2D2E4 [|] 
[V:3] A,4B,4 [|] 
[V:4] z4z2G,2 [|] 
[V:5] F,4E,4 [|] 
[V:6] F,4E,4 [|] 
[V:1] F2E2!breath!E2F2 [|] 
[V:2] z8 [|] 
[V:3] C4A,4 [|] 
[V:4] A,4C4 [|] 
[V:5] A,,2A,2>G,2F,4 [|] 
[V:6] !breath!A,,2A,2>G,2F,2- [|] 
[V:1] C2C2C4 [|] 
[V:2] z2=C2F2F3 [|] 
[V:3] G,4F,4 [|] 
[V:4] G,4A,6 [|] 
[V:5] E,2F,3E, [|] 
[V:6] F,2E,2F,3E, [|] 
[V:1] D4z2E2 [|] 
[V:2] ED4^C2 [|] 
[V:3] F,4E,4 [|] 
[V:4] A,2A,4 [|] 
[V:5] D,C,D,2A,,4 [|] 
[V:6] D,C,D,2A,,4 [|] 
[V:1] F2D2D4 [|] 
[V:2] D2>=C2_B,2A,2 [|] 
[V:3] !fermata!D,8- [|] 
[V:4] A,4G,2A,2 [|] 
[V:5] z2D,2G,,2^F,,2 [|] 
[V:6] z2D,2G,2^F,2 [|] 
[V:1] !fermata!D8-D4 [|] 
[V:2] G,4!fermata!F,8 [|] 
[V:3] D,8-D,4 [|] 
[V:4] _B,4!fermata!A,8 [|] 
[V:5] G,,4!fermata!D,8 [|] 
[V:6] G,4!fermata!D,8 [|] 
[V:1] [M:C|]z2F4E2 [|] 
[V:2] [M:C|]C4C6 [|] 
[V:3] [M:C|]F,4G,4 [|] 
[V:4] [M:C|]A,4G,4 [|] 
[V:5] [M:C|]F,4C,4 [|] 
[V:6] [M:C|]=F,4C,3C, [|] 
[V:1] F2>E2DCDE [|] 
[V:2] C2A,4 [|] 
[V:3] A,4!breath!A,2A,2 [|] 
[V:4] F,6F,2 [|] 
[V:5] =F,,2F,2>E,2D,C, [|] 
[V:6] F,,2F,2>E,2D,C, [|] 
[V:1] F2F2E4 [|] 
[V:2] D4C4 [|] 
[V:3] !breath!A,2A,2A,2A,2 [|] 
[V:4] F,4z8 [|] 
[V:5] D,4!breath!A,,2A,2- [|] 
[V:6] D,4A,,2A,3 [|] 
[V:1] A2>G2F2E2 [|] 
[V:2] C2C2D2E2 [|] 
[V:3] !breath!A,2A,2A,4 [|] 
[V:4] z2A,2 [|] 
[V:5] A,G,F,E,D,2^C,2 [|] 
[V:6] G,F,E,D,2^C,2 [|] 
[V:1] D4C4 [|] 
[V:2] F4E4 [|] 
[V:3] A,4C4 [|] 
[V:4] D2A,4G,2 [|] 
[V:5] D,4A,,2=C,2 [|] 
[V:6] D,4A,,2=C,2 [|] 
[V:1] z2C2D2F4 [|] 
[V:2] D2C2A,G,A,=B, [|] 
[V:3] A,2A,2A,4 [|] 
[V:4] F,2>G,2A,4 [|] 
[V:5] D,2F,4F,2 [|] 
[V:6] D,2F,4F,2 [|] 
[V:1] EDE2E2 [|] 
[V:2] C8 [|] 
[V:3] G,4G,4 [|] 
[V:4] z8 [|] 
[V:5] C,4C,4 [|] 
[V:6] C,4C,4 [|] 
[V:1] F4C4 [|] 
[V:2] C4z2C2 [|] 
[V:3] A,4G,4 [|] 
[V:4] F,4G,4 [|] 
[V:5] !breath!F,,2F,4E,2 [|] 
[V:6] !breath!F,,2F,4E,2 [|] 
[V:1] z2F4E2 [|] 
[V:2] C6C2 [|] 
[V:3] F,4G,4 [|] 
[V:4] A,4G,4 [|] 
[V:5] F,4C,4 [|] 
[V:6] F,4C,4 [|] 
[V:1] F2>E2DCDE [|] 
[V:2] C2C2A,4 [|] 
[V:3] A,4A,2A,2 [|] 
[V:4] F,6F,2 [|] 
[V:5] F,,2F,2>E,2D,C, [|] 
[V:6] !breath!F,,2F,2>E,2D,C, [|] 
[V:1] F2F2E4 [|] 
[V:2] D2>D2C8 [|] 
[V:3] A,2A,2A,3A, [|] 
[V:4] F,4z8 [|] 
[V:5] D,4!breath!A,,2A,3 [|] 
[V:6] D,4!breath!A,,2A,3 [|] 
[V:1] A2>G2F2E2 [|] 
[V:2] D2E2 [|] 
[V:3] A,2-!breath!A,2!breath!A,4 [|] 
[V:4] z2A,2 [|] 
[V:5] G,F,E,D,2^C,2 [|] 
[V:6] G,F,E,D,2^C,2 [|] 
[V:1] D4C4 [|] 
[V:2] F4E4 [|] 
[V:3] A,4C4 [|] 
[V:4] D2A,4G,2 [|] 
[V:5] D,2>D,2A,,2=C,2 [|] 
[V:6] D,2>D,2A,,2=C,2 [|] 
[V:1] z2C2D2F4 [|] 
[V:2] D2C2A,G,A,B, [|] 
[V:3] A,4A,4 [|] 
[V:4] F,2>G,2A,4 [|] 
[V:5] D,2F,4F,2 [|] 
[V:6] D,2F,4F,2 [|] 
[V:1] EDE2E2 [|] 
[V:2] C4C4 [|] 
[V:3] G,4G,4 [|] 
[V:4] z8 [|] 
[V:5] C,4C,4 [|] 
[V:6] C,8 [|] 
[V:1] F4C4 [|] 
[V:2] C8 [|] 
[V:3] A,4G,4 [|] 
[V:4] F,4G,4 [|] 
[V:5] !breath!F,,2F,4E,2 [|] 
[V:6] !breath!F,,2F,4E,2 [|] 
[V:1] z2F4E2 [|] 
[V:2] z2D2G4 [|] 
[V:3] F,4G,4 [|] 
[V:4] A,2=B,2C4 [|] 
[V:5] F,2D,2C,4 [|] 
[V:6] F,2D,2C,3C, [|] 
[V:1] F2D2!breath!C2F4 [|] 
[V:2] F6F2 [|] 
[V:3] A,4A,4 [|] 
[V:4] z2A,2-A,G,F,E, [|] 
[V:5] F,,2F,2>E,2D,C, [|] 
[V:6] !breath!F,,2F,2>E,2D,C, [|] 
[V:1] F2E2E2 [|] 
[V:2] D2D4^C2 [|] 
[V:3] A,2A,2A,4 [|] 
[V:4] F,2D,2E,4 [|] 
[V:5] D,4A,,4 [|] 
[V:6] D,4A,,4 [|] 
[V:1] D2A4G2 [|] 
[V:2] D2D2E4 [|] 
[V:3] A,4B,4 [|] 
[V:4] z4z2G,2 [|] 
[V:5] F,4E,4 [|] 
[V:6] F,4E,4 [|] 
[V:1] F2E2E2F2 [|] 
[V:2] z8 [|] 
[V:3] C4A,4 [|] 
[V:4] A,4C4 [|] 
[V:5] A,,2A,2>G,2F,4 [|] 
[V:6] !breath!A,,2A,2>G,2F,4 [|] 
[V:1] C2C2C4 [|] 
[V:2] z2=C2F2F3 [|] 
[V:3] G,4F,4 [|] 
[V:4] G,4A,6 [|] 
[V:5] E,2F,3E, [|] 
[V:6] E,2F,3E, [|] 
[V:1] D4z2E2 [|] 
[V:2] ED4^C2 [|] 
[V:3] F,4E,4 [|] 
[V:4] A,2A,4 [|] 
[V:5] D,C,D,2A,,4 [|] 
[V:6] D,C,D,2A,,4 [|] 
[V:1] F2D2D4 [|] 
[V:2] D2>=C2_B,2A,2 [|] 
[V:3] !fermata!D,8- [|] 
[V:4] A,4G,2A,2 [|] 
[V:5] z2D,2G,,2^F,,2 [|] 
[V:6] z2D,2G,2^F,2 [|] 
[V:1] !fermata!D8- [|] 
[V:2] G,4!fermata!^F,8- [|] 
[V:3] D,8- [|] 
[V:4] _B,4!fermata!A,8- [|] 
[V:5] G,,4!fermata!D,8- [|] 
[V:6] G,4!fermata!D,8- [|] 
[V:1] D8 |]  
[V:2] F,4 |]  
[V:3] D,8 |]  
[V:4] A,4 |]  
[V:5] D,4 |]  
[V:6] D,4 |]  

